X: 1122
M: 6/8
L: 1/8
K: F
|:\
f2c A2F | cde f3 | fed cBA | GcB AGF |\
f2c A2F | cde f3 | fed cBA | cBG F3 :|
|:\

